tools/download-figma-icons/icons/outlined-medium/female.svg

<svg width="24" height="24" viewBox="0 0 24 24" fill="none" xmlns="http://www.w3.org/2000/svg">
<path d="M19.5 7.5C19.5 3.3675 16.1325 0 12 0C7.8675 0 4.5 3.3675 4.5 7.5C4.5 10.8375 6.69 13.68 9.72 14.6475V16.5H8.22C7.395 16.5 6.72 17.175 6.72 18V19.5C6.72 20.325 7.3875 21 8.22 21H9.72V22.5C9.72 23.325 10.395 24 11.22 24H12.72C13.545 24 14.22 23.325 14.22 22.5V21H15.72C16.545 21 17.22 20.3325 17.22 19.5V18.03C17.22 17.205 16.545 16.53 15.72 16.53H14.22V14.6625C17.2725 13.7175 19.5 10.86 19.5 7.5ZM12.72 13.455V18.03H15.72V19.5H12.72V22.5H11.22V19.5H8.22V18H11.22V13.4475C10.695 13.38 10.1925 13.245 9.72 13.05C7.5375 12.15 6 9.9975 6 7.5C6 4.1925 8.6925 1.5 12 1.5C15.3075 1.5 18 4.1925 18 7.5C18 10.02 16.4325 12.1875 14.22 13.0725C13.7475 13.26 13.245 13.395 12.72 13.455Z" fill="black"/>
<path d="M16.47 7.5C16.47 5.0175 14.4525 3 11.97 3C9.48747 3 7.46997 5.0175 7.46997 7.5C7.46997 9.36 8.60247 10.965 10.215 11.6475C10.755 11.8725 11.3475 12 11.97 12C12.5925 12 13.185 11.8725 13.725 11.6475C15.3375 10.965 16.47 9.36 16.47 7.5ZM11.97 10.5C10.3125 10.5 8.96997 9.1575 8.96997 7.5C8.96997 5.8425 10.3125 4.5 11.97 4.5C13.6275 4.5 14.97 5.8425 14.97 7.5C14.97 9.1575 13.6275 10.5 11.97 10.5Z" fill="black"/>
</svg>

<svg width="24" height="24" viewBox="0 0 24 24" fill="none" xmlns="http://www.w3.org/2000/svg"><path d="M19.5 7.5C19.5 3.367 16.133 0 12 0S4.5 3.368 4.5 7.5c0 3.338 2.19 6.18 5.22 7.148V16.5h-1.5c-.825 0-1.5.675-1.5 1.5v1.5a1.5 1.5 0 0 0 1.5 1.5h1.5v1.5c0 .825.675 1.5 1.5 1.5h1.5c.825 0 1.5-.675 1.5-1.5V21h1.5a1.5 1.5 0 0 0 1.5-1.5v-1.47c0-.825-.675-1.5-1.5-1.5h-1.5v-1.868c3.053-.945 5.28-3.802 5.28-7.162Zm-6.78 5.955v4.575h3v1.47h-3v3h-1.5v-3h-3V18h3v-4.553a5.897 5.897 0 0 1-1.5-.397A6.012 6.012 0 0 1 6 7.5c0-3.308 2.693-6 6-6s6 2.692 6 6a6.013 6.013 0 0 1-3.78 5.572 5.876 5.876 0 0 1-1.5.383Z" fill="currentColor"/><path d="M16.47 7.5c0-2.482-2.017-4.5-4.5-4.5a4.504 4.504 0 0 0-1.755 8.648 4.553 4.553 0 0 0 3.51 0A4.507 4.507 0 0 0 16.47 7.5Zm-4.5 3a3 3 0 1 1 0-6 3 3 0 1 1 0 6Z" fill="currentColor"/></svg>
